Numix/16/status/indicator-keyboard-Tg-1.svg

<?xml version="1.0" encoding="UTF-8" standalone="no"?>
<svg
   xmlns:dc="http://purl.org/dc/elements/1.1/"
   xmlns:cc="http://creativecommons.org/ns#"
   xmlns:rdf="http://www.w3.org/1999/02/22-rdf-syntax-ns#"
   xmlns:svg="http://www.w3.org/2000/svg"
   xmlns="http://www.w3.org/2000/svg"
   xmlns:sodipodi="http://sodipodi.sourceforge.net/DTD/sodipodi-0.dtd"
   xmlns:inkscape="http://www.inkscape.org/namespaces/inkscape"
   viewBox="0 0 16 16"
   id="svg2"
   version="1.1"
   inkscape:version="0.91 r13725"
   sodipodi:docname="indicator-keyboard-Tg-1.svg">
  <metadata
     id="metadata14">
    <rdf:RDF>
      <cc:Work
         rdf:about="">
        <dc:format>image/svg+xml</dc:format>
        <dc:type
           rdf:resource="http://purl.org/dc/dcmitype/StillImage" />
      </cc:Work>
    </rdf:RDF>
  </metadata>
  <defs
     id="defs12" />
  <sodipodi:namedview
     pagecolor="#ffffff"
     bordercolor="#666666"
     borderopacity="1"
     objecttolerance="10"
     gridtolerance="10"
     guidetolerance="10"
     inkscape:pageopacity="0"
     inkscape:pageshadow="2"
     inkscape:window-width="459"
     inkscape:window-height="369"
     id="namedview10"
     showgrid="false"
     inkscape:zoom="14.75"
     inkscape:cx="8"
     inkscape:cy="8"
     inkscape:window-x="65"
     inkscape:window-y="24"
     inkscape:window-maximized="0"
     inkscape:current-layer="svg2" />
  <path
     style="fill:#ececec;fill-opacity:1"
     d="M 1.5996094 0 C 0.71320937 2.9605947e-16 0 0.71320937 0 1.5996094 L 0 14.400391 C 2.9605947e-16 15.286791 0.71320937 16 1.5996094 16 L 14.400391 16 C 15.286791 16 16 15.286791 16 14.400391 L 16 1.5996094 C 16 0.71320937 15.286791 0 14.400391 0 L 1.5996094 0 z M 2.2050781 4.859375 L 6.8144531 4.859375 L 6.8144531 5.390625 L 4.8164062 5.390625 L 4.8164062 11.095703 L 4.203125 11.095703 L 4.203125 5.390625 L 2.2050781 5.390625 L 2.2050781 4.859375 z M 9.2792969 6.3535156 C 9.7112969 6.3535156 10.056453 6.3833594 10.314453 6.4433594 C 10.578453 6.4973594 10.792938 6.5514688 10.960938 6.6054688 L 10.960938 10.853516 C 10.960938 11.549516 10.781875 12.043891 10.421875 12.337891 C 10.061875 12.637891 9.5189688 12.787109 8.7929688 12.787109 C 8.4929688 12.787109 8.2206094 12.764797 7.9746094 12.716797 C 7.7346094 12.674797 7.5275156 12.6225 7.3535156 12.5625 L 7.4707031 12.03125 C 7.6147031 12.09725 7.8086875 12.155125 8.0546875 12.203125 C 8.3066875 12.251125 8.5585469 12.275391 8.8105469 12.275391 C 9.3625469 12.275391 9.7618125 12.167172 10.007812 11.951172 C 10.259813 11.741172 10.386719 11.377328 10.386719 10.861328 L 10.386719 10.556641 C 10.350719 10.586641 10.296609 10.622063 10.224609 10.664062 C 10.152609 10.700062 10.061125 10.73925 9.953125 10.78125 C 9.851125 10.82325 9.73175 10.858672 9.59375 10.888672 C 9.46175 10.912672 9.3125312 10.925781 9.1445312 10.925781 C 8.8745312 10.925781 8.6133281 10.882828 8.3613281 10.798828 C 8.1093281 10.714828 7.8873125 10.582344 7.6953125 10.402344 C 7.5093125 10.222344 7.3581406 9.9929377 7.2441406 9.7109375 C 7.1301406 9.4229375 7.0742188 9.0740156 7.0742188 8.6660156 C 7.0742188 8.3360156 7.1245625 8.0300469 7.2265625 7.7480469 C 7.3285625 7.4660469 7.4722031 7.2235312 7.6582031 7.0195312 C 7.8502031 6.8095312 8.0815625 6.6472031 8.3515625 6.5332031 C 8.6275625 6.4132031 8.9372969 6.3535156 9.2792969 6.3535156 z M 9.2871094 6.8847656 C 9.0351094 6.8847656 8.8112813 6.9295312 8.6132812 7.0195312 C 8.4212813 7.1035312 8.2551875 7.2266719 8.1171875 7.3886719 C 7.9791875 7.5446719 7.8747344 7.7330781 7.8027344 7.9550781 C 7.7307344 8.1710781 7.6953125 8.4117812 7.6953125 8.6757812 C 7.6953125 8.9817812 7.7363125 9.2447969 7.8203125 9.4667969 C 7.9043125 9.6827969 8.0125313 9.8600469 8.1445312 9.9980469 C 8.2825312 10.136047 8.4392813 10.238688 8.6132812 10.304688 C 8.7872812 10.364687 8.9645313 10.394531 9.1445312 10.394531 C 9.4085312 10.394531 9.6472813 10.355344 9.8632812 10.277344 C 10.085281 10.199344 10.256953 10.109812 10.376953 10.007812 L 10.376953 7.0097656 C 10.274953 6.9797656 10.142469 6.9536875 9.9804688 6.9296875 C 9.8184688 6.8996875 9.5871094 6.8847656 9.2871094 6.8847656 z M 13.525391 8.8417969 L 13.794922 8.8417969 L 13.794922 12.896484 L 13.414062 12.896484 L 13.414062 9.421875 C 13.371163 9.468675 13.314341 9.5157063 13.244141 9.5664062 C 13.177841 9.6171063 13.101425 9.66805 13.015625 9.71875 C 12.929825 9.76555 12.841647 9.812575 12.748047 9.859375 C 12.654448 9.902275 12.560397 9.9375437 12.466797 9.9648438 L 12.355469 9.671875 C 12.589468 9.5899751 12.797169 9.4880813 12.980469 9.3632812 C 13.163769 9.2345813 13.345991 9.0601969 13.525391 8.8417969 z "
     id="path4" />
</svg>

<svg xmlns="http://www.w3.org/2000/svg" viewBox="0 0 16 16">
 <path d="m 1.6 0 c -0.886 0 -1.6 0.713 -1.6 1.6 l 0 12.801 c 0 0.886 0.713 1.6 1.6 1.6 l 12.801 0 c 0.886 0 1.6 -0.713 1.6 -1.6 l 0 -12.801 c 0 -0.886 -0.713 -1.6 -1.6 -1.6 l -12.801 0 z m 0.605 4.859 l 4.609 0 l 0 0.531 l -1.998 0 l 0 5.705 l -0.613 0 l 0 -5.705 l -1.998 0 l 0 -0.531 z m 7.07 1.494 c 0.432 0 0.777 0.03 1.035 0.09 c 0.264 0.054 0.478 0.108 0.646 0.162 l 0 4.248 c 0 0.696 -0.179 1.19 -0.539 1.484 c -0.36 0.3 -0.903 0.449 -1.629 0.449 c -0.3 0 -0.572 -0.022 -0.818 -0.07 c -0.24 -0.042 -0.447 -0.094 -0.621 -0.154 l 0.117 -0.531 c 0.144 0.066 0.338 0.124 0.584 0.172 c 0.252 0.048 0.504 0.072 0.756 0.072 c 0.552 0 0.951 -0.108 1.197 -0.324 c 0.252 -0.21 0.379 -0.574 0.379 -1.09 l 0 -0.305 c -0.036 0.03 -0.09 0.065 -0.162 0.107 c -0.072 0.036 -0.163 0.075 -0.271 0.117 c -0.102 0.042 -0.221 0.077 -0.359 0.107 c -0.132 0.024 -0.281 0.037 -0.449 0.037 c -0.27 0 -0.531 -0.043 -0.783 -0.127 c -0.252 -0.084 -0.474 -0.216 -0.666 -0.396 c -0.186 -0.18 -0.337 -0.409 -0.451 -0.691 c -0.114 -0.288 -0.17 -0.637 -0.17 -1.045 c 0 -0.33 0.05 -0.636 0.152 -0.918 c 0.102 -0.282 0.246 -0.525 0.432 -0.729 c 0.192 -0.21 0.423 -0.372 0.693 -0.486 c 0.276 -0.12 0.586 -0.18 0.928 -0.18 z m 0.008 0.531 c -0.252 0 -0.476 0.045 -0.674 0.135 c -0.192 0.084 -0.358 0.207 -0.496 0.369 c -0.138 0.156 -0.242 0.344 -0.314 0.566 c -0.072 0.216 -0.107 0.457 -0.107 0.721 c 0 0.306 0.041 0.569 0.125 0.791 c 0.084 0.216 0.192 0.393 0.324 0.531 c 0.138 0.138 0.295 0.241 0.469 0.307 c 0.174 0.06 0.351 0.09 0.531 0.09 c 0.264 0 0.503 -0.039 0.719 -0.117 c 0.222 -0.078 0.394 -0.168 0.514 -0.27 l 0 -2.998 c -0.102 -0.03 -0.234 -0.056 -0.396 -0.08 c -0.162 -0.03 -0.393 -0.045 -0.693 -0.045 z m 4.238 1.957 l 0.27 0 l 0 4.055 l -0.381 0 l 0 -3.475 c -0.043 0.047 -0.1 0.094 -0.17 0.145 c -0.066 0.051 -0.143 0.102 -0.229 0.152 c -0.086 0.047 -0.174 0.094 -0.268 0.141 c -0.094 0.043 -0.188 0.078 -0.281 0.105 l -0.111 -0.293 c 0.234 -0.082 0.442 -0.184 0.625 -0.309 c 0.183 -0.129 0.366 -0.303 0.545 -0.521 z" style="fill:#ececec;fill-opacity:1"/>
</svg>
